images/icons/breadcrumbs-split.svg

<svg width="8" height="20" viewBox="0 0 8 20" fill="none" xmlns="http://www.w3.org/2000/svg">
<path d="M6.91526 9.4375L2.16526 5.1875C1.91526 4.9375 1.41526 4.9375 1.04026 5.1875C0.665263 5.4375 0.790263 5.9375 1.04026 6.1875L5.16526 9.9375L1.16526 13.6875C0.915263 13.9375 0.915263 14.4375 1.16526 14.6875C1.16526 14.8125 1.54026 14.9375 1.66526 14.9375C1.79026 14.9375 2.04026 14.8125 2.16526 14.6875L6.91526 10.4375C7.29026 10.1875 7.29026 9.6875 6.91526 9.4375Z" fill="white"/>
</svg>

<svg width="8" height="20" viewBox="0 0 8 20" fill="none" xmlns="http://www.w3.org/2000/svg"><path d="m6.92 9.44-4.75-4.25c-.25-.25-.75-.25-1.13 0-.37.25-.25.75 0 1l4.13 3.75-4 3.75a.76.76 0 0 0 0 1c0 .12.37.25.5.25.12 0 .37-.13.5-.25l4.75-4.25a.59.59 0 0 0 0-1Z" fill="#fff"/></svg>
